!!!SOCIAL_FUNCTION:	songs connected with legends
!!!PDT:	1929
!!!OTL: No_31_I_Will_Pull_Out_Their_Feathers.krn
!!!REG: Southwest
!!!LANG: Non-Tone
!!!LING_GROUP: Uto-Aztecan
**kern
*staff1
=1-
*clefF4
*k[]
*M2/4
4c\
8c\L
8d-\J
=2
16c\LK
8.c\J
8c\L
8d-\J
=3
16c\LK
[8.c\J
8c\L]
8G\J
=4
16A-\LK
8.G\J
8G\L
8D\J
=5
8G\L
8G\J
8G\L
8D\J
=6||
*M3/4
8G\L
8G\J
4G\
8G\
8r
=7||
*M2/4
8G\L
8G\J
8G\L
8D\J
=8||
*M3/4
8G\L
8G\J
4G\
8G\L
8D\J
=9||
*M2/4
8G\L
8G\J
8G\
8r
=10
8G\L
8G\J
8G\L
8B\J
=11
8A\L
8G\J
8A\L
8G\J
=12
8A\L
8G\J
8A\
8r
==
*-
